!!!!SEGMENT: pl-kk--kk-i-15--012_asola-giovanni-matteo--beatus-vir.krn
!!!cenid: 16xx:1129
!!!COM: Asola, Giovanni Matteo
!!!COM-rismID: pe20000387
!!!CDT: <=1532-1609/10/01
!!!CNT: Italian
!!!OTL: Beatus vir
!!!PDT:
!!!AGN: Sacred
!!!YEC: Copyright 2022 Narodowy Instytut Fryderyka Chopina (https://polishscores.org)
!!!YEM: License CC-BY-4.0 (https://creativecommons.org/licenses/by/4.0)
!!!SMS-siglum: PL-Kk
!!!SMS-shelfmark: Kk.I.15
!!!SMS-shelfwork: 012 W
!!!SMS-variant:
!!!SMS-altvar:
!!!NIFC-rismSourceID: 1001146379
!!!NIFC-rismChildID: 1001147281
!!!NIFC-islandoraID: pl-kk:2631
!!!URL-pdf-islandora: https://repozytorium.nifc.pl/islandora/object/pl-kk%3A2631/datastream/PDF/view
!!!URL-scan: https://polish.musicsources.pl/pl/lokalizacje/galeria/rekopisy/5777 @EN{Scan on Polish Music Sources Website} @PL{Skany w portalu Dziedzictwo Muzyki Polskiej w otwartym dostępie}
!!!IIIF:
!!!ONB-nifc: UWAGA: C (skan 0008-0009), A (skan 0026-0027), T (skan 0043), B (skan 0061). Następny motet: Exultate gaudete
!!!AIN: 1 alto 1 empty 1 tenor 1 vox
!!!key:
**kern	**text	**kern	**text	**kern	**text	**kern	**text
*part4	*	*part3	*	*part2	*	*part1	*
*staff4	*	*staff3	*	*staff2	*	*staff1	*
*Iempty	*	*Itenor	*	*Ialto	*	*Ivox	*
*I"Baſso	*	*I"Tenore.	*	*I"Alto	*	*I"Canto.	*
*I'B	*	*I'T	*	*I'A	*	*I'C	*
*clefF4	*	*clefC4	*	*clefC4	*	*clefC3	*
*k[b-]	*	*k[b-]	*	*k[b-]	*	*k[b-]	*
*d:	*	*d:	*	*d:	*	*d:	*
*M2/1	*	*M2/1	*	*M2/1	*	*M2/1	*
*met(C|)	*	*met(C|)	*	*met(C|)	*	*met(C|)	*
=1-	=1-	=1-	=1-	=1-	=1-	=1-	=1-
*all\right	*	*all\right	*	*all\right	*	*all\right	*
!LO:TX:a:t=P:problem=przed metrum pomocniczo dźwięk altowy 0A	!	!	!	!	!	!LO:TX:a:t=6	!
!LO:TX:t=P:problem=kreska pseudotaktowa	!	!	!	!	!	!	!
0r	.	00r	.	0A	Be-	00r	.
=2-	=2-	=2-	=2-	=2-	=2-	=2-	=2-
!	!	!	!	!LO:TX:t=P:problem=kreska pseudotaktowa	!	!	!
0D	Be-	.	.	1A	-a-	.	.
!	!	!	!	!LO:TX:t=P:problem=kreska pseudotaktowa	!	!	!
.	.	.	.	1B-	-tus	.	.
=3-	=3-	=3-	=3-	=3-	=3-	=3-	=3-
!	!	!	!	!	!	!LO:TX:t=P:problem=kreska pseudotaktowa	!
1D	-a-	00r	.	2A/	Vir	0r	.
.	.	.	.	1A	qui	.	.
!LO:TX:t=P:problem=kreska pseudotaktowa	!	!	!	!	!	!	!
1E-X	-tus	.	.	.	.	.	.
!	!	!	!	!LO:TX:t=P:problem=kreska pseudotaktowa	!	!	!
.	.	.	.	2G/	in	.	.
=4-	=4-	=4-	=4-	=4-	=4-	=4-	=4-
*	*	*	*	*2\right	*	*	*
2D/	Vir	.	.	2B-\	le-	0d	Be-
1D	qui	.	.	4A/	.	.	.
!	!	!	!	!LO:TX:t=P:problem=kreska pseudotaktowa	!	!	!
.	.	.	.	4G/	.	.	.
.	.	.	.	2A/	.	.	.
!	!	!	!	!LO:TX:t=P:problem=kreska pseudotaktowa	!	!	!
2D/	in	.	.	2A/	-ge	.	.
=5-	=5-	=5-	=5-	=5-	=5-	=5-	=5-
!	!	!LO:TX:t=P:problem=kreska pseudotaktowa	!	!	!	!LO:TX:t=P:problem=kreska pseudotaktowa	!
2BB-/	le-	0r	.	2.B-\	Do-	1d	-a-
!LO:TX:t=P:problem=kreska pseudotaktowa	!	!	!	!	!	!	!
2BB-/	-ge	.	.	.	.	.	.
.	.	.	.	4A/	.	.	.
1C	Do-	.	.	4G/	.	1e	-tus
.	.	.	.	4F/	.	.	.
.	.	.	.	2.G/	.	.	.
=6-	=6-	=6-	=6-	=6-	=6-	=6-	=6-
*	*	*	*	*	*	*2\right	*
1D	-mi-	0A	Be-	.	.	2d\	Vir
*	*	*	*	*custos:F	*	*	*
.	.	.	.	4F/	.	.	.
!	!	!	!	!LO:LB:g=original	!	!	!
.	.	.	.	4F/	.	1d	qui
.	.	.	.	8E/L	.	.	.
!	!	!	!	!LO:TX:t=P:problem=kreska pseudotaktowa	!	!	!
.	.	.	.	8D/J	.	.	.
!LO:TX:t=P:problem=kreska pseudotaktowa	!	!	!	!	!	!	!
!LO:TX:t=P:global:problem=rozdzielacz słów	!	!	!	!	!	!	!
1AA,<	-ni	.	.	2E/	-mi-	.	.
!	!	!	!	!LO:TX:t=P:problem=kreska pseudotaktowa	!	!LO:TX:t=P:problem=kreska pseudotaktowa	!
.	.	.	.	2E/	-ni	2c/	in
=7-	=7-	=7-	=7-	=7-	=7-	=7-	=7-
*	*ij	*	*	*	*	*	*
!	!	!LO:TX:t=P:problem=kreska pseudotaktowa	!	!LO:TX:t=P:global:problem=rozdzielacz słów	!	!	!
0D	Be-	1A	-a-	2D,</	.	4d\	Le-
.	.	.	.	.	.	4e\	.
!	!	!	!	!LO:TX:t=P:problem=kreska pseudotaktowa	!	!	!
.	.	.	.	2D/	me-	2.f\	.
!	!	!LO:TX:t=P:problem=kreska pseudotaktowa	!	!	!	!	!
.	.	1B-	-tus	2F/	-di-	.	.
.	.	.	.	.	.	4e\	.
.	.	.	.	1G/	-ta-	4d\	.
!	!	!	!	!	!	!LO:TX:t=P:problem=kreska pseudotaktowa	!
.	.	.	.	.	.	4c\	.
=8-	=8-	=8-	=8-	=8-	=8-	=8-	=8-
*custos:E	*	*	*	*	*	*	*
!	!	!LO:TX:t=P:global:problem=rozdzielacz słów	!	!	!	!	!
1D	-a-	2A,</	Vir	.	.	2d\	.
.	.	1A	qui	2F/	-bi-	2d\	-ge
!LO:LB:g=original	!	!	!	!LO:TX:t=P:problem=kreska pseudotaktowa	!	!	!
1E-X	-tus	.	.	1G	-tur	2B-/	Do-
!	!	!LO:TX:t=P:problem=kreska pseudotaktowa	!	!	!	!	!
.	.	2G/	in	.	.	2c/	-mi-
=9-	=9-	=9-	=9-	=9-	=9-	=9-	=9-
*	*	*2\right	*	*	*	*	*
*	*	*	*	*	*	*custos:d	*
!	!	!	!	!	!	!LO:TX:t=P:problem=kreska pseudotaktowa	!
2D,</	Vir	2B-\	le-	00r	.	1d	-ni
1D	qui	4A/	.	.	.	.	.
!	!	!LO:TX:t=P:problem=kreska pseudotaktowa	!	!	!	!	!
.	.	4G/	.	.	.	.	.
!	!	!	!	!	!	!LO:LB:g=original	!
.	.	2A/	-ge	.	.	2r	.
!LO:TX:t=P:problem=kreska pseudotaktowa	!	!LO:TX:t=P:problem=kreska pseudotaktowa	!	!	!	!	!
2D/	in	2A/	Do-	.	.	1d\	Qui
=10-	=10-	=10-	=10-	=10-	=10-	=10-	=10-
2BB-/	le-	2.B-\	.	.	.	.	.
!	!	!	!	!	!	!LO:TX:t=P:problem=kreska pseudotaktowa	!
2GG/	-ge	.	.	.	.	2d\	in
.	.	4A/	.	.	.	.	.
!LO:TX:t=P:problem=kreska pseudotaktowa	!	!	!	!	!	!	!
1C	Do-	4G/	.	.	.	2c/	Le-
*	*	*custos:G	*	*	*	*	*
!	!	!LO:TX:t=P:problem=kreska pseudotaktowa	!	!	!	!	!
.	.	4F/	.	.	.	.	.
!	!	!LO:LB:g=original	!	!	!	!	!
.	.	2.G/	.	.	.	2.e\	-ge
=11-	=11-	=11-	=11-	=11-	=11-	=11-	=11-
!	!	!	!	!LO:TX:t=P:problem=kreska pseudotaktowa	!	!	!
1BB-	-mi-	.	.	1r	.	.	.
.	.	4F/	.	.	.	4d\	.
.	.	4F/	.	.	.	1d	Do-
.	.	8E/L	.	.	.	.	.
!	!	!LO:TX:t=P:problem=kreska pseudotaktowa	!	!	!	!	!
.	.	8D/J	.	.	.	.	.
!LO:TX:t=P:problem=kreska pseudotaktowa	!	!	!	!	!	!	!
1AA	-ni	2E/	mi-	0A	Be-	.	.
*	*Xij	*	*	*	*	*	*
!	!	!	!	!	!	!LO:TX:t=P:problem=kreska pseudotaktowa	!
.	.	2E/	-ni	.	.	2c/	-mi-
=12-	=12-	=12-	=12-	=12-	=12-	=12-	=12-
!	!	!LO:TX:t=P:problem=kreska pseudotaktowa	!	!	!	!	!
2rC	.	1D	.	.	.	2d\	-ni
1D	Me-	.	.	.	.	1f	Me-
!	!	!	!	!LO:TX:t=P:problem=kreska pseudotaktowa	!	!	!
.	.	2rF	.	1A	-a-	.	.
!LO:TX:t=P:problem=kreska pseudotaktowa	!	!LO:TX:t=P:problem=kreska pseudotaktowa	!	!	!	!LO:TX:t=P:problem=kreska pseudotaktowa	!
2C/	-di-	2E/	me-	.	.	2e\	-di-
=13-	=13-	=13-	=13-	=13-	=13-	=13-	=13-
2BB-/	-ta-	2F/	-di-	1B-	-tus	0.d	-tabi-
2GG/	-bi-	2.G/	-ta-	.	.	.	.
!LO:TX:t=P:problem=kreska pseudotaktowa	!	!	!	!	!	!	!
1D	-tur	.	.	2A/	Vir	.	.
.	.	8F/L	.	.	.	.	.
.	.	8E/J	.	.	.	.	.
!	!	!LO:TX:t=P:problem=kreska pseudotaktowa	!	!	!	!	!
.	.	2F/	-bi-	1A\	qui	.	.
=14-	=14-	=14-	=14-	=14-	=14-	=14-	=14-
2r	.	2D/	-tur	.	.	.	.
*	*ij	*	*	*	*	*	*
!	!	!	!	!LO:TX:t=P:problem=kreska pseudotaktowa	!	!	!
1GG	Me-	2.G/	me-	2G/	in	.	.
!	!	!	!	!	!	!LO:TX:t=P:problem=kreska pseudotaktowa	!
.	.	.	.	2B-\	le-	0d	-tur
.	.	4G/	-di-	.	.	.	.
!LO:TX:t=P:problem=kreska pseudotaktowa	!	!LO:TX:t=P:problem=kreska pseudotaktowa	!	!	!	!	!
2D/	-di-	2F/	-ta-	2A/	-ge	.	.
=15-	=15-	=15-	=15-	=15-	=15-	=15-	=15-
1GG	-tabi-	2G/	-bi-	2.G/	Do-	.	.
.	.	1d	-tur	.	.	.	.
*	*	*	*	*custos:E	*	*	*
.	.	.	.	4F/	.	.	.
*custos:D	*	*	*	*	*	*	*
!	!	!	!	!LO:LB:g=original	!	!	!
!LO:TX:t=P:problem=kreska pseudotaktowa	!	!	!	!	!	!	!
1AA	-tur	.	.	2E/	-mi-	1r	.
*	*	*custos:B	*	*	*	*	*
!	!	!LO:TX:t=P:problem=kreska pseudotaktowa	!	!LO:TX:t=P:problem=kreska pseudotaktowa	!	!	!
.	.	2c\	.	2E/	-ni	.	.
!LO:PB:g=original	!	!LO:PB:g=original	!	!	!	!	!
=16-	=16-	=16-L	=16-	=16-	=16-	=16-	=16-
*	*	*lig	*	*	*	*	*
!LO:TX:t=P:problem=kreska pseudotaktowa	!	!	!	!	!	!	!
0r	.	1B-	.	2D/	.	2r	.
!	!	!	!	!	!	!LO:TX:t=P:problem=kreska pseudotaktowa	!
.	.	.	.	1d	Me-	2g\	in
.	.	1A	.	.	.	2f\	le-
.	.	.	.	2c\	-di-	2e\	-ge
!	!	!	!	!LO:TX:t=P:problem=kreska pseudotaktowa	!	!	!
*	*	*Xlig	*	*	*	*	*
=17-	=17-	=17-	=17-	=17-	=17-	=17-	=17-
!	!	!LO:TX:t=P:problem=kreska pseudotaktowa	!	!	!	!	!
*	*	*	*	*lig	*	*	*
2r	.	1D	.	1B-	-ta-	2.d\	Do-
1D	Me-	.	.	.	.	.	.
.	.	.	.	.	.	4d\	-mi-
*	*	*	*	*	*	*custos:e	*
.	.	2rF	.	1A	-bi-	2e\	-ni
*	*	*	*ij	*	*	*	*
!	!	!	!	!	!	!LO:LB:g=original	!
!LO:TX:t=P:problem=kreska pseudotaktowa	!	!	!	!	!	!LO:TX:t=P:problem=kreska pseudotaktowa	!
2C/	-di-	1A\	me-	.	.	2e\	me-
*	*	*	*	*Xlig	*	*	*
=18-	=18-	=18-	=18-	=18-	=18-	=18-	=18-
!	!	!	!	!LO:TX:t=P:problem=kreska pseudotaktowa	!	!	!
2BB-/	-ta-	.	.	1D	-tur	2f\	-di-
!	!	!LO:TX:t=P:problem=kreska pseudotaktowa	!	!	!	!	!
2BB-/	-bi-	2G/	-di-	.	.	1d	-ta-
2AA,</	-tur	2.F/	-ta-	0r	.	.	.
1A\	Me-	.	.	.	.	4c/	.
!	!	!	!	!	!	!LO:TX:t=P:problem=kreska pseudotaktowa	!
.	.	8E/L	.	.	.	4B-/	.
.	.	8D/J	.	.	.	.	.
=19-	=19-	=19-	=19-	=19-	=19-	=19-	=19-
.	.	1E	-bi-	.	.	1c	-bi-
*2\right	*	*	*	*	*	*	*
!LO:TX:t=P:problem=kreska pseudotaktowa	!	!	!	!	!	!	!
2G\	-di-	.	.	.	.	.	.
!	!	!LO:TX:t=P:problem=kreska pseudotaktowa	!	!	!	!LO:TX:t=P:problem=kreska pseudotaktowa	!
2.F\	-ta-	1D	-tur	2r	.	1d	-tur
*	*	*	*Xij	*	*	*	*
.	.	.	.	1A\	Me-	.	.
8Eny\L	.	.	.	.	.	.	.
8D\J	.	.	.	.	.	.	.
=20-	=20-	=20-	=20-	=20-	=20-	=20-	=20-
1E	-bi-	1rA	.	.	.	2r	.
!	!	!	!	!LO:TX:t=P:problem=kreska pseudotaktowa	!	!	!
.	.	.	.	2G/	-di-	2G/	Vo-
!LO:TX:t=P:problem=kreska pseudotaktowa	!	!	!	!	!	!	!
1D,<	-tur	2rF	.	2.F/	-ta-	2d\	-lun-
*	*Xij	*	*	*	*	*	*
!	!	!LO:TX:t=P:problem=kreska pseudotaktowa	!	!	!	!LO:TX:t=P:problem=kreska pseudotaktowa	!
.	.	2D/	Vo-	.	.	2d\	-tas
.	.	.	.	8E/L	-bi-	.	.
.	.	.	.	8D/J	.	.	.
=21-	=21-	=21-	=21-	=21-	=21-	=21-	=21-
!	!	!	!	!LO:TX:t=P:problem=kreska pseudotaktowa	!	!	!
1AA	Vo-	2A/	-lun-	1E	-tur	1c#X	e-
.	.	2A/	-tas	.	.	.	.
!	!	!LO:TX:t=P:problem=kreska pseudotaktowa	!	!	!	!LO:TX:t=P:problem=kreska pseudotaktowa	!
2D/	-lun-	1F	e-	2D,</	.	1d	-ius
!LO:TX:t=P:problem=kreska pseudotaktowa	!	!	!	!	!	!	!
2D/	-tas	.	.	2D/	Vo-	.	.
=22-	=22-	=22-	=22-	=22-	=22-	=22-	=22-
2C/	e-	2E/	-ius	2A/	-lun-	2r	.
*	*	*	*	*	*	*	*ij
!	!	!	!	!LO:TX:t=P:problem=kreska pseudotaktowa	!	!	!
2AA/	-ius	1F	per-	2A/	-tas	2A/	Vo-
*lig	*	*	*	*	*	*	*
1BB-	per-	.	.	2.F/	e-	2d\	-lun-
!	!	!	!	!	!	!LO:TX:t=P:problem=kreska pseudotaktowa	!
.	.	2D/	-ma-	.	.	2d\	-tas
.	.	.	.	4G/	.	.	.
=23-	=23-	=23-	=23-	=23-	=23-	=23-	=23-
*col	*	*	*	*	*	*	*
*	*	*custos:A	*	*	*	*	*
*	*	*	*	*custos:E	*	*	*
!	!	!LO:TX:t=P:problem=kreska pseudotaktowa	!	!	!	!	!
2.AA/	.	1E	-net	2A/	.	2cny/	e-
!	!	!	!	!LO:LB:g=original	!	!	!
!	!	!	!	!LO:TX:t=P:problem=kreska pseudotaktowa	!	!	!
.	.	.	.	2E/	-ius	2A/	-ius
*Xlig	*	*	*	*	*	*	*Xij
4AA/	-ma-	.	.	.	.	.	.
*Xcol	*	*	*	*	*	*	*
*custos:GG	*	*	*	*	*	*	*
!	!	!LO:LB:g=original	!	!	!	!	!
*	*	*	*	*	*	*lig	*
2GG/	-net	1r	.	2.G/	per-	1B-	per-
*	*ij	*	*	*	*	*	*
!LO:LB:g=original	!	!	!	!	!	!	!
!LO:TX:t=P:problem=kreska pseudotaktowa	!	!	!	!	!	!	!
2GG/	Vo-	.	.	.	.	.	.
.	.	.	.	4G/	-ma-	.	.
=24-	=24-	=24-	=24-	=24-	=24-	=24-	=24-
!	!	!	!	!LO:TX:t=P:problem=kreska pseudotaktowa	!	!	!
*	*	*	*ij	*	*	*col	*
2D/	-lun	2r	.	1F	-net	2.A/	.
!	!	!LO:TX:t=P:problem=kreska pseudotaktowa	!	!	!	!	!
2D/	tas	2A/	Vo-	.	.	.	.
*	*	*	*	*	*	*Xlig	*
*	*	*	*	*	*	*custos:G	*
.	.	.	.	.	.	4A/	-ma-
*	*	*	*	*	*	*Xcol	*
!	!	!	!	!	!	!LO:LB:g=original	!
!	!	!	!	!	!	!LO:TX:t=P:problem=kreska pseudotaktowa	!
2BB-/	e-	2d\	-lun-	0r	.	1G	-net
!LO:TX:t=P:problem=kreska pseudotaktowa	!	!	!	!	!	!	!
2GG/	-ius	2d\	-tas	.	.	.	.
=25-	=25-	=25-	=25-	=25-	=25-	=25-	=25-
!	!	!LO:TX:t=P:problem=kreska pseudotaktowa	!	!	!	!	!
2.G\	per-	1B-	e-	.	.	2r	.
.	.	.	.	.	.	2d\	Vo-
4F\	.	.	.	.	.	.	.
2E-X\	.	2G/	-ius	2r	.	2g\	-lun-
*	*	*	*	*	*ij	*	*
!	!	!	!	!LO:TX:t=P:problem=kreska pseudotaktowa	!	!LO:TX:t=P:problem=kreska pseudotaktowa	!
2E-\	-ma-	1B-\	per-	2G/	Vo-	2g\	-tas
=26-	=26-	=26-	=26-	=26-	=26-	=26-	=26-
!LO:TX:t=P:problem=kreska pseudotaktowa	!	!	!	!	!	!	!
1D	-net	.	.	2d\	-lun-	2f\	e-
.	.	2A/	-ma-	2d\	-tas	2e\	-ius
!	!	!LO:TX:t=P:problem=kreska pseudotaktowa	!	!	!	!	!
2r	.	1A	-net	2c\	e-	2.f\	per-
!	!	!	!	!LO:TX:t=P:problem=kreska pseudotaktowa	!	!	!
2D/	Vo-	.	.	2d\	-ius	.	.
!	!	!	!	!	!	!LO:TX:t=P:problem=kreska pseudotaktowa	!
.	.	.	.	.	.	4e\	-ma-
=27-	=27-	=27-	=27-	=27-	=27-	=27-	=27-
2G\	-lun-	0r	.	2.B-\	per-	2d\	-net
!LO:TX:t=P:problem=kreska pseudotaktowa	!	!	!	!	!	!	!
2G\	-tas	.	.	.	.	2B-/	.
.	.	.	.	4B-\	-ma-	.	.
!	!	!	!	!	!	!LO:TX:t=P:global:problem=rozdzielacz słów	!
2F\	e-	.	.	2A/	-net	2c,</	.
*	*	*	*	*	*Xij	*	*
!	!	!	!	!LO:TX:t=P:problem=kreska pseudotaktowa	!	!LO:TX:t=P:problem=kreska pseudotaktowa	!
2D/	-ius	.	.	2F,</	.	2d\	di-
=28-	=28-	=28-	=28-	=28-	=28-	=28-	=28-
2.F\	per-	1r	.	1.A	di-	2c/	-e
!	!	!	!	!	!	!LO:TX:t=P:problem=kreska pseudotaktowa	!
.	.	.	.	.	.	2c/	ac
!LO:TX:t=P:problem=♭ above	!	!	!	!	!	!	!
!LO:TX:t=P:problem=kreska pseudotaktowa	!	!	!	!	!	!	!
4E-X\	.	.	.	.	.	.	.
*	*	*	*	*	*	*lig	*
2D/	.	2r	.	.	.	1f	Noc-
!	!	!LO:TX:t=P:problem=kreska pseudotaktowa	!	!LO:TX:t=P:problem=kreska pseudotaktowa	!	!	!
2D/	-ma-	2D/	Vo-	2B-\	-e	.	.
=29-	=29-	=29-	=29-	=29-	=29-	=29-	=29-
*custos:D	*	*	*	*	*	*	*
!LO:TX:t=P:problem=kreska pseudotaktowa	!	!	!	!	!	!LO:TX:t=P:problem=♭ above	!
1C,<	-net	2G/	-lun-	2.c\	ac	1e-X	.
*	*Xij	*	*	*	*	*	*
.	.	2G/	-tas	.	.	.	.
.	.	.	.	4B-\	.	.	.
*	*	*	*	*	*	*Xlig	*
*	*	*	*	*	*	*custos:G	*
!LO:LB:g=original	!	!	!	!	!	!	!
!	!	!LO:TX:t=P:problem=kreska pseudotaktowa	!	!	!	!LO:TX:t=P:problem=kreska pseudotaktowa	!
1D	di-	1F	e-	4A\	.	1d	-te
*	*	*	*	*custos:B	*	*	*
.	.	.	.	4G\	.	.	.
!	!	!	!	!LO:LB:g=original	!	!	!
.	.	.	.	2.B-\	.	.	.
!	!	!	!	!	!	!LO:LB:g=original	!
=30-	=30-	=30-	=30-	=30-	=30-	=30-	=30-
2BB-/	-e	2D/	-ius	.	.	2rA	.
.	.	.	.	4A/	.	.	.
!LO:TX:t=P:problem=kreska pseudotaktowa	!	!	!	!	!	!	!
2C/	ac	1E	per-	1G	Noc-	2G/	Vo-
1AA	No-	.	.	.	.	2c/	-lun-
!	!	!LO:TX:t=P:problem=kreska pseudotaktowa	!	!LO:TX:t=P:problem=kreska pseudotaktowa	!	!LO:TX:t=P:problem=kreska pseudotaktowa	!
.	.	2C/	-ma-	2F/	-te	2c/	-tas
=31-	=31-	=31-	=31-	=31-	=31-	=31-	=31-
!LO:TX:t=P:problem=kreska pseudotaktowa	!	!	!	!LO:TX:t=P:problem=kreska pseudotaktowa	!	!	!
1GG	-cte	2D/	net	1G	.	2B-/	e-
*	*	*	*Xij	*	*	*	*
.	.	2D/	di-	.	.	2G/	-ius
*	*	*custos:G	*	*	*	*	*
!	!	!	!	!	!	!LO:TX:t=P:problem=kreska pseudotaktowa	!
2rC	.	2G/	-e	1r	.	1B-	per-
!	!	!LO:LB:g=original	!	!	!	!	!
!	!	!LO:TX:t=P:problem=kreska pseudotaktowa	!	!	!	!	!
2GG/	Vo-	2G/	ac	.	.	.	.
=32-	=32-	=32-	=32-	=32-	=32-	=32-	=32-
2D/	-lun-	1F	Noc-	2r	.	2A/	-ma-
!LO:TX:t=P:problem=kreska pseudotaktowa	!	!	!	!LO:TX:t=P:problem=kreska pseudotaktowa	!	!LO:TX:t=P:problem=kreska pseudotaktowa	!
2D/	-tas	.	.	2D/	per-	2B-/	-net
!	!	!LO:TX:t=P:problem=kreska pseudotaktowa	!	!	!	!	!
2C/	e-	1E	-te	2A/	-ma-	2c/	di-
2AA/	-ius	.	.	2A/	-net	4c/	-e
!	!	!	!	!	!	!LO:TX:t=P:problem=kreska pseudotaktowa	!
.	.	.	.	.	.	4c/	ac
=33-	=33-	=33-	=33-	=33-	=33-	=33-	=33-
2.BB-/	per-	2rF	.	(2F/	di-	1d	Noc-
*	*	*	*ij	*	*	*	*
!	!	!	!	!LO:TX:t=P:problem=kreska pseudotaktowa	!	!	!
.	.	2D/	Vo-	2G/)	.	.	.
!LO:TX:t=P:problem=kreska pseudotaktowa	!	!	!	!	!	!	!
4BB-/	-ma-	.	.	.	.	.	.
!LO:TX:t=P:problem=kreska pseudotaktowa	!	!	!	!	!	!LO:TX:t=P:problem=kreska pseudotaktowa	!
1AA,<	-net	2E/	-lun-	[2.A/	-e	1c	-te
!	!	!LO:TX:t=P:problem=kreska pseudotaktowa	!	!	!	!	!
.	.	2F/	-tas	.	.	.	.
.	.	.	.	4A/]	.	.	.
=34-	=34-	=34-	=34-	=34-	=34-	=34-	=34-
1GG	di-	2G/	e-	2B-,<\	.	2r	.
!	!	!	!	!LO:TX:t=P:problem=kreska pseudotaktowa	!	!	!
.	.	2D/	-ius	2B-\	di-	1d	di-
1.D	-e	2.F/	per-	2A/	-e	.	.
.	.	.	.	2A/	ac	1f\	-e
!	!	!LO:TX:t=P:problem=kreska pseudotaktowa	!	!	!	!	!
.	.	4F/	-ma-	.	.	.	.
=35-	=35-	=35-	=35-	=35-	=35-	=35-	=35-
.	.	2D/	-net	2F/	no-	.	.
!LO:TX:t=P:problem=kreska pseudotaktowa	!	!	!	!	!	!	!
2C/	ac	2E/	di-	1A	.	2.eny\	ac
*lig	*	*	*	*	*	*	*
1BB-	Noc-	2F/	-e	.	.	.	.
.	.	.	.	.	.	4d\	.
!	!	!LO:TX:t=P:problem=kreska pseudotaktowa	!	!	!	!	!
.	.	2D/	ac	2G/	.	1d\	Noc-
=36-	=36-	=36-	=36-	=36-	=36-	=36-	=36-
*	*	*	*	*custos:c	*	*	*
!	!	!	!	!LO:TX:t=P:problem=kreska pseudotaktowa	!	!	!
1AA	.	1E	noc-	0A	-cte	.	.
!	!	!	!	!	!	!LO:TX:t=P:problem=kreska pseudotaktowa	!
.	.	.	.	.	.	2c/	.
*Xlig	*	*	*	*	*	*	*
*	*	*	*	*	*	*custos:e	*
!LO:TX:t=P:problem=kreska pseudotaktowa	!	!LO:TX:t=P:problem=kreska pseudotaktowa	!	!	!	!LO:TX:t=P:problem=kreska pseudotaktowa	!
1D	-te	1D,<	-te	.	.	1d	-te
*	*	*	*Xij	*	*	*	*
!	!	!	!	!	!	!LO:LB:g=original	!
=37-	=37-	=37-	=37-	=37-	=37-	=37-	=37-
!	!	!	!	!LO:TX:t=P:problem=kreska pseudotaktowa	!	!	!
1C	et	1G	Et	1c	Et	1e	et
1.BB-	om-	1.B-	om-	1.d	om-	1.f	om-
=38-	=38-	=38-	=38-	=38-	=38-	=38-	=38-
.	.	.	.	.	.	.	.
*custos:BB	*	*	*	*	*	*	*
!	!	!LO:TX:t=P:problem=kreska pseudotaktowa	!	!	!	!LO:TX:t=P:problem=kreska pseudotaktowa	!
2BB-/	-ni-	2B-\	-ni-	2d\	-ni-	2f\	-ni-
*	*	*custos:F	*	*	*	*	*
!LO:LB:g=original	!	!	!	!	!	!	!
!LO:TX:t=P:problem=kreska pseudotaktowa	!	!	!	!LO:TX:t=P:problem=kreska pseudotaktowa	!	!	!
1BB-	-a	2B-\	-a	1d	-a	2f\	-a
!	!	!LO:LB:g=original	!	!	!	!	!
!	!	!LO:TX:t=P:problem=kreska pseudotaktowa	!	!	!	!	!
.	.	2F/	quae-	.	.	2f\	quae-
=39-	=39-	=39-	=39-	=39-	=39-	=39-	=39-
1rD	.	2G/	-cum-	1r	.	2e\	-cum-
!	!	!	!	!	!	!LO:TX:t=P:problem=kreska pseudotaktowa	!
.	.	2A/	-q(ue)	.	.	2c,</	-q(ue)
2rC	.	2.c\	fa-	2r	.	4d\	fa-
.	.	.	.	.	.	4e\	.
!LO:TX:t=P:problem=kreska pseudotaktowa	!	!	!	!LO:TX:t=P:problem=kreska pseudotaktowa	!	!	!
2BB-/	quae-	.	.	2d\	quae-	4f\	.
!	!	!LO:TX:t=P:problem=kreska pseudotaktowa	!	!	!	!LO:TX:t=P:problem=kreska pseudotaktowa	!
.	.	4B-\	-ci-	.	.	4d\	.
=40-	=40-	=40-	=40-	=40-	=40-	=40-	=40-
!	!	!LO:TX:t=P:problem=kreska pseudotaktowa	!	!	!	!	!
2C/	-cum-	1A	-et	2c\	-cum-	2e\	.
!	!	!	!	!LO:TX:t=P:problem=kreska pseudotaktowa	!	!	!
2D/	-q(ue)	.	.	2A/	-q(ue)	1d	.
2.Eny\	fa-	1r	.	2.G/	fa-	.	.
!	!	!	!	!	!	!LO:TX:t=P:problem=kreska pseudotaktowa	!
.	.	.	.	.	.	2c/	-ci-
!LO:TX:t=P:problem=kreska pseudotaktowa	!	!	!	!	!	!	!
4E\	-ci-	.	.	4G/	-ci-	.	.
=41-	=41-	=41-	=41-	=41-	=41-	=41-	=41-
!LO:TX:t=P:problem=kreska pseudotaktowa	!	!	!	!LO:TX:t=P:problem=kreska pseudotaktowa	!	!	!
1D	-et	2r	.	1A	-et	2d,<\	-et
!	!	!LO:TX:t=P:problem=kreska pseudotaktowa	!	!	!	!LO:TX:t=P:problem=kreska pseudotaktowa	!
.	.	2A/	quae-	.	.	2f\	quae-
1r	.	2B-\	-cum-	1r	.	2e\	-cum-
!	!	!	!	!	!	!LO:TX:t=P:problem=kreska pseudotaktowa	!
.	.	2c\	-q(ue)	.	.	2e\	-q(ue)
=42-	=42-	=42-	=42-	=42-	=42-	=42-	=42-
2r	.	2.d\	fa-	2r	.	2.f\	fa-
*	*ij	*	*	*	*ij	*	*
!LO:TX:t=P:problem=kreska pseudotaktowa	!	!	!	!LO:TX:t=P:problem=kreska pseudotaktowa	!	!	!
2BB-/	quae-	.	.	2B-\	quae-	.	.
*	*	*	*	*	*	*custos:e	*
!	!	!LO:TX:t=P:problem=kreska pseudotaktowa	!	!	!	!	!
.	.	4d\	-ci-	.	.	4f\	-ci-
!	!	!	!	!	!	!LO:LB:g=original	!
2C/	-cum-	2c,<\	-et	2G/	-cum-	2e,<\	-et
*	*	*	*ij	*	*	*	*
!	!	!	!	!LO:TX:t=P:problem=kreska pseudotaktowa	!	!LO:TX:t=P:problem=kreska pseudotaktowa	!
2BB-/	-q(ue)	2c\	quae-	2A/	-q(ue)	2c/	Sem-
=43-	=43-	=43-	=43-	=43-	=43-	=43-	=43-
2.D/	fa-	2A/	-cum-	2.F/	fa-	2d\	-per
!	!	!LO:TX:t=P:problem=kreska pseudotaktowa	!	!	!	!	!
.	.	2B-\	-q(ue)	.	.	2f\	pro-
!LO:TX:t=P:problem=kreska pseudotaktowa	!	!	!	!	!	!	!
4D/	-ci-	.	.	4F/	-ci-	.	.
*	*	*	*	*custos:G	*	*	*
!LO:TX:t=P:problem=kreska pseudotaktowa	!	!	!	!LO:TX:t=P:problem=kreska pseudotaktowa	!	!	!
1C	-et	2.c\	fa-	1G	-et	2.e\	-spe-
!	!	!	!	!	!	!LO:TX:t=P:problem=kreska pseudotaktowa	!
.	.	4c\	-ci-	.	.	4e\	-ra-
!	!	!	!	!LO:LB:g=original	!	!	!
=44-	=44-	=44-	=44-	=44-	=44-	=44-	=44-
*	*	*custos:G	*	*	*	*	*
!	!	!LO:TX:t=P:problem=kreska pseudotaktowa	!	!	!	!	!
2r	.	1B-	-et	2r	.	2d\	-bun-
*	*	*	*Xij	*	*	*	*
!LO:TX:t=P:problem=kreska pseudotaktowa	!	!	!	!LO:TX:t=P:problem=kreska pseudotaktowa	!	!LO:TX:t=P:problem=kreska pseudotaktowa	!
2GG/	quae-	.	.	2G/	quae-	2d\	-tur
!	!	!LO:LB:g=original	!	!	!	!	!
2D/	-cum-	1r	.	2A/	-cum-	2r	.
!LO:TX:t=P:problem=kreska pseudotaktowa	!	!	!	!	!	!	!
2BB-/	-q(ue)	.	.	2c\	-q(ue)	2d\	quae-
=45-	=45-	=45-	=45-	=45-	=45-	=45-	=45-
*	*	*	*	*lig	*	*	*
2.E\	fa-	2r	.	1G	fa-	2B-/	-cum-
!	!	!LO:TX:t=P:problem=kreska pseudotaktowa	!	!	!	!LO:TX:t=P:problem=kreska pseudotaktowa	!
.	.	2G/	Sem-	.	.	2c/	-q(ue)
*custos:D	*	*	*	*	*	*	*
4E\	-ci-	.	.	.	.	.	.
!LO:LB:g=original	!	!	!	!	!	!	!
*	*	*	*	*col	*	*	*
!LO:TX:t=P:problem=kreska pseudotaktowa	!	!	!	!	!	!	!
1D	-et	2F/	-per	2.A/	.	1.d	fa-
.	.	2D/	pro-	.	.	.	.
*	*Xij	*	*	*Xlig	*	*	*
.	.	.	.	4A/	-ci-	.	.
*	*	*	*	*Xcol	*	*	*
=46-	=46-	=46-	=46-	=46-	=46-	=46-	=46-
!	!	!	!	!LO:TX:t=P:problem=kreska pseudotaktowa	!	!	!
2r	.	2G/	-spe-	1G	-et	.	.
*	*	*	*	*	*Xij	*	*
!	!	!LO:TX:t=P:problem=kreska pseudotaktowa	!	!	!	!	!
2G\	Sem-	2B-\	-ra-	.	.	2d\	-ci-
!	!	!	!	!	!	!LO:TX:t=P:problem=kreska pseudotaktowa	!
2F\	-per	1A	-bun-	2r	.	1d	-et
!LO:TX:t=P:problem=kreska pseudotaktowa	!	!	!	!	!	!	!
2D/	pro-	.	.	2d\	Sem-	.	.
=47-	=47-	=47-	=47-	=47-	=47-	=47-	=47-
!LO:TX:t=P:problem=♭ above	!	!	!	!	!	!	!
2E-X\	-spe-	2G,</	-tur	2c\	-per	1r	.
*	*	*	*ij	*	*	*	*
!	!	!LO:TX:t=P:problem=kreska pseudotaktowa	!	!LO:TX:t=P:problem=kreska pseudotaktowa	!	!	!
2F\	-ra-	2c\	Sem-	2A/	pro-	.	.
1G	-bun-	2B-\	-per	2B-\	-spe-	2r	.
!	!	!	!	!	!	!LO:TX:t=P:problem=kreska pseudotaktowa	!
.	.	2G/	pro-	2B-\	-ra-	2g\	Sem-
=48-	=48-	=48-	=48-	=48-	=48-	=48-	=48-
!LO:TX:t=P:problem=kreska pseudotaktowa	!	!	!	!	!	!	!
1D	-tur	2.A/	-spe-	2A/	-bun-	2f\	-per
*	*	*	*	*	*	*custos:e	*
!	!	!	!	!LO:TX:t=P:problem=kreska pseudotaktowa	!	!	!
.	.	.	.	2F/	-tur	2d\	pro-
!	!	!LO:TX:t=P:problem=kreska pseudotaktowa	!	!	!	!	!
.	.	4B-\	-ra-	.	.	.	.
!	!	!	!	!	!	!LO:LB:g=original	!
2r	.	2c\	-bun-	2r	.	2e\	-spe-
*	*ij	*	*	*	*ij	*	*
!	!	!	!	!	!	!LO:TX:t=P:problem=kreska pseudotaktowa	!
2D/	Sem-	2F,</	-tur	2A/	Sem-	2f\	-ra-
=49-	=49-	=49-	=49-	=49-	=49-	=49-	=49-
2C/	-per	2G/	Sem-	2c\	-per	1e	-bun-
!LO:TX:t=P:problem=kreska pseudotaktowa	!	!LO:TX:t=P:problem=kreska pseudotaktowa	!	!LO:TX:t=P:problem=kreska pseudotaktowa	!	!	!
2AA/	pro-	2A/	-per	2c\	pro-	.	.
*	*	*	*	*custos:G	*	*	*
2BB-/	-spe-	2D/	pro-	2B-\	-spe-	2d\	-tur
*	*	*	*	*	*	*	*ij
*	*	*custos:F	*	*	*	*	*
!	!	!	!	!LO:LB:g=original	!	!	!
!	!	!	!	!LO:TX:t=P:problem=kreska pseudotaktowa	!	!LO:TX:t=P:problem=kreska pseudotaktowa	!
2C/	-ra-	2E/	-spe-	2G/	-ra-	2g\	Sem-
!	!	!LO:LB:g=original	!	!	!	!	!
=50-	=50-	=50-	=50-	=50-	=50-	=50-	=50-
1D	-bun-	2.F/	.	4B-\	-bun-	2f\	-per
.	.	.	.	4A\	.	.	.
.	.	.	.	1d	.	2d\	pro-
!	!	!LO:TX:t=P:problem=kreska pseudotaktowa	!	!	!	!	!
.	.	4F/	-ra-	.	.	.	.
*custos:D	*	*	*	*	*	*	*
!LO:TX:t=P:problem=kreska pseudotaktowa	!	!	!	!	!	!	!
1AA	-tur	1E	-bun-	.	.	2e\	-spe-
!	!	!	!	!LO:TX:t=P:problem=kreska pseudotaktowa	!	!LO:TX:t=P:problem=kreska pseudotaktowa	!
.	.	.	.	2c\	.	2e\	-ra-
!LO:LB:g=original	!	!	!	!	!	!	!
=51-	=51-	=51-	=51-	=51-	=51-	=51-	=51-
!	!	!	!	!LO:TX:t=P:problem=kreska pseudotaktowa	!	!	!
*	*	*	*	*	*	*lig	*
2r	.	2D,</	-tur	1d	-tur	1f	-bun-
!LO:TX:t=P:problem=kreska pseudotaktowa	!	!LO:TX:t=P:problem=kreska pseudotaktowa	!	!	!	!	!
2D/	Sem-	2A/	Sem-	.	.	.	.
2C/	-per	2c\	-per	2r	.	1e	.
2AA/	pro-	2c\	pro-	2A/	Sem-	.	.
*	*	*	*	*	*	*Xlig	*
=52-	=52-	=52-	=52-	=52-	=52-	=52-	=52-
!	!	!	!	!	!	!LO:TX:t=P:problem=kreska pseudotaktowa	!
2BB-/	-spe-	2c\	-spe-	2F/	-per	1d	-tur
!LO:TX:t=P:problem=kreska pseudotaktowa	!	!LO:TX:t=P:problem=kreska pseudotaktowa	!	!LO:TX:t=P:problem=kreska pseudotaktowa	!	!	!
2GG/	-ra-	2B-\	-ra-	2G/	pro-	.	.
1D	-bun-	1A	-bun-	2G/	-spe-	2r	.
!	!	!	!	!LO:TX:t=P:problem=kreska pseudotaktowa	!	!	!
.	.	.	.	2F/	-ra-	2d\	Sem-
=53-	=53-	=53-	=53-	=53-	=53-	=53-	=53-
!LO:TX:t=P:problem=kreska pseudotaktowa	!	!LO:TX:t=P:problem=kreska pseudotaktowa	!	!	!	!	!
1GG	-tur	1G	-tur	2.G/	-bun-	2B-/	-per
!	!	!	!	!	!	!LO:TX:t=P:problem=kreska pseudotaktowa	!
.	.	.	.	.	.	2G/	pro-
.	.	.	.	4F/	.	.	.
2r	.	2r	.	1E-X	.	2B-/	-spe-
!	!	!LO:TX:t=P:problem=kreska pseudotaktowa	!	!	!	!	!
2G\	Sem-	2G/	Sem-	.	.	2c/	-ra-
=54-	=54-	=54-	=54-	=54-	=54-	=54-	=54-
!	!	!	!	!LO:TX:t=P:problem=kreska pseudotaktowa	!	!LO:TX:t=P:problem=kreska pseudotaktowa	!
2F\	-per	2A/	-per	1D	-tur	1d	-bun-
*	*	*	*	*	*Xij	*	*
!LO:TX:t=P:problem=kreska pseudotaktowa	!	!LO:TX:t=P:problem=kreska pseudotaktowa	!	!	!	!	!
2Eny\	pro-	2B-\	pro-	.	.	.	.
!	!	!	!	!	!	!LO:LB:g=original	!
2E-X\	-spe-	2B-\	-spe-	1r	.	2G,</	-tur
!	!	!LO:TX:t=P:problem=kreska pseudotaktowa	!	!	!	!	!
2C/	-ra-	2c\	-ra-	.	.	2g\	Sem-
=55-	=55-	=55-	=55-	=55-	=55-	=55-	=55-
*lig	*	*	*	*	*	*	*
1D	-bun-	2.A/	-bun-	2r	.	2f\	-per
!	!	!	!	!LO:TX:t=P:problem=kreska pseudotaktowa	!	!LO:TX:t=P:problem=kreska pseudotaktowa	!
.	.	.	.	2A/	Sem-	2d\	pro-
.	.	8G/L	.	.	.	.	.
.	.	8F/J	.	.	.	.	.
*	*	*custos:G	*	*	*	*	*
!LO:TX:t=P:problem=kreska pseudotaktowa	!	!	!	!	!	!	!
1C	.	1G	.	2c\	-per	2e\	-spe-
*	*	*	*	*custos:B	*	*	*
.	.	.	.	2c\	pro-	2c/	-ra-
*Xlig	*	*	*	*	*	*	*
!	!	!LO:LB:g=original	!	!LO:PB:g=original	!	!	!
=56-	=56-	=56-	=56-	=56-	=56-	=56-	=56-
*custos:D	*	*	*	*	*	*	*
2GG,</	-tur	2G,</	-tur	2B-\	-spe-	4d\	-bun-
.	.	.	.	.	.	4e\	.
!LO:LB:g=original	!	!LO:TX:t=P:problem=kreska pseudotaktowa	!	!LO:TX:t=P:problem=kreska pseudotaktowa	!	!	!
2D/	Sem-	2F/	Sem-	2A/	-ra-	4f\	.
!	!	!	!	!	!	!LO:TX:t=P:problem=kreska pseudotaktowa	!
.	.	.	.	.	.	4d\	-tur
*	*	*	*	*lig	*	*	*
2C/	-per	2G/	-per	1c	-bun-	4e\	Sem-
.	.	.	.	.	.	4f\	-per
!LO:TX:t=P:problem=kreska pseudotaktowa	!	!	!	!	!	!	!
2AA/	pro-	2A/	pro-	.	.	2.e\	pro-
=57-	=57-	=57-	=57-	=57-	=57-	=57-	=57-
2BB-/	-spe-	2F/	-spe-	1B-	.	.	.
.	.	.	.	.	.	4d\	-spe-
2GG/	-ra-	2G/	-ra-	.	.	1d\	-ra-
!	!	!LO:TX:t=P:problem=kreska pseudotaktowa	!	!	!	!	!
*	*	*	*	*Xlig	*	*	*
!LO:TX:t=P:problem=kreska pseudotaktowa	!	!	!	!LO:TX:t=P:problem=kreska pseudotaktowa	!	!	!
1AA	-bun-	1E	-bun-	1A,<	-tur	.	.
!	!	!	!	!	!	!LO:TX:t=P:problem=kreska pseudotaktowa	!
.	.	.	.	.	.	2c/	-bun-
=58-	=58-	=58-	=58-	=58-	=58-	=58-	=58-
*	*	*	*	*	*ij	*	*
2D,</	-tur	2D,</	-tur	1F	Sem-	[0dl;;	-tur
*	*	*	*	*	*	*	*Xij
!	!	!LO:TX:t=P:problem=kreska pseudotaktowa	!	!	!	!	!
2D/	Sem-	2A/	Sem-	.	.	.	.
2BB-/	-per	2B-\	-per	2F/	-per	.	.
!LO:TX:t=P:problem=kreska pseudotaktowa	!	!	!	!LO:TX:t=P:problem=kreska pseudotaktowa	!	!	!
2GG/	pro-	2B-\	pro-	2G/	pro-	.	.
=59-	=59-	=59-	=59-	=59-	=59-	=59-	=59-
2D/	-spe-	2A/	-spe-	2G/	-pe-	0d_	.
!	!	!LO:TX:t=P:problem=kreska pseudotaktowa	!	!	!	!	!
2D/	-ra-	2A/	-ra-	2F/	-ra-	.	.
1GG	-bun-	1G	-bun-	1B-	-bun-	.	.
=60-	=60-	=60-	=60-	=60-	=60-	=60-	=60-
!LO:TX:b:t=Mottetta de Quolibet Sancto ex Auribus	!	!LO:TX:b:t=Mottetta de quolibet Sancto ex \nAuribus	!	!LO:TX:b:t=DE quolibet \nSancto	!	!LO:TX:b:t=DE quoli&colon;\n bet Sancto	!
0Dl;;	-tur	0F#Xl;;	-tur	0Al;;	-tur	0d]	.
*	*Xij	*	*Xij	*	*Xij	*	*
==	==	==	==	==	==	==	==
*-	*-	*-	*-	*-	*-	*-	*-
!!!system-decoration: [s1,s2,s3,s4]
!!!RDF**kern: < = below
!!!RDF**kern: l = terminal long
!!!ENC: Marta Lawrence
!!!END: 2021-03-27
!!!ENC: Kamil Watkowski
!!!END: 2021-03-20
